!!!OTL: An t-oile&szlig;n úr, S. 78
!!!id: I0523
**kern
*clefG2
*k[f#c#]
*D:
{8d
=1
8d
4dd
4a
4cc#
4dd
=2
2ee
4dd
8dd
8cc#
=3
4a
4a
8a
8g
4e
=4
2d}
=5
{4c
8d
8e
=6
4.f#
8e
4f#
4g
=7
4.a
8g
4a
4c#
=8
8e
4.e
8d
4.d
=9
2.d}
=10
{4a
=11
4dd
4a
4cc#
4dd
=12
2ee
4dd
8dd
8cc#
=13
4a
4a
8a
8g
4e
=14
2d}
=15
{4c
8d
8e
=16
4.f#
8e
4f#
4g
=17
4.a
8g
4a
4c#
=18
8e
2e
4.d
=19
2.d}
4r
==
*-
!!!minrhy: 8
!!!meters: 4/4 ]  ZZ[4
!!!cut: An t-oile&szlig;n úr, S. 78
!!!reg: Irland
!!!trd: O BOYLE, Sean: 25 Irish Folksongs, Dublin 1976
!!!rhy1:   X_X_X_X_  X__X_XX  X_X_XXX_  X__
!!!rhy2: X_XX  X_.XX_X_  X_.XX_X_  XX_.XX_.  X__.
!!!key: I0523  08  D 4/4 ]  ZZ[4
!!!mod: HEPTATONIK DUR ?]  AMBITUS[10
!!!kad: 1111
!!!akz: +17+2+1551_-7b33552111_+17+2+1551_-7b33552211_
!!!fot: 'a__b__av_b__
!!!for: 'a__b__av_c__
!!!fok: 'Sd_^a_^d_^a_
!! PHRAS[VORWIEGEND AUFTAKTIG]
!!!fkt: Auswandererlied
!! IRISCHE VKL.
!! PR[7] 2K[11] 2G[26] 3K[3] 3G[2] 4A[6] 4Ü[0] 5A[2] 6K[0] 6G[0]
!! 7K[0] 7G[0] 8A[0] MEHR[0] SI[50] ABS[105] SR[37] SP[12]
!! ST[16] 2k[8] 2g[12] 3k[10] 3g[10] 4d[0] 4ü[0] 5d[1] 6k[2] 6g[0]
!! 7k[0] 7g[0] 8d[0] mehr[0] si[44] dm[+6] sr[20] sp[24]
!! 1F[55] 2F[24] 3F[3] 4F[0] LF[0] 2P[15] 3P[4] 4P[0] TRI[0] DF[5] AB[106]
!! TF[27] U3K[0] U3[9] U4[11] U4Ü[3] U5[16] U6K[0] U6[7] U7K[1] U7[8]
!! N1[8] N2K[0] N2[5] N3K[0] N3[4] N4[2] N4Ü[0] N5[0] N6K[0] N6[0]
!!!n7k: 0] N7[0] O1[0] O2K[0] O2[0] O3K[0] O3[0] HÖ[0
!!!RNB: symbol: &szlig; = sz ligature (UTF-8: ÃŸ)
